X:0655
T:Irish Air.
M:6/4
L:1/4
Q:3/4=104
I: :: :: ::
Z:Jack Campin * www.campin.me.uk * 2009
K:G
G|:G>AG F2D|E2F G2A|B2G c2A|B2G c2A|Bcd E2E|ABc D2D|E>FG AF>D|G3 G3:|
   ded  e2f|g3  g3 |BcB c2d|e3- e3 |dcB cde|dcd D2D|EFG  AFD |G3 G3:|
   BAB  DGB|AGA DFA|GFG EAG|F3  D3 |dBd dBd|ece efg|dcB  cAF |G3 G3:|
<end>
<start>
